assets/svgs/knife-color/KnifeColor13.svg

<svg xmlns="http://www.w3.org/2000/svg" data-name="Layer 1" viewBox="0 0 256 256"><path fill="#e5e5e5" fill-rule="evenodd" d="M104.691 55.015l80.917 62.685 39.037 45.786c-6.4-.25-26.3-.777-31.06 2.081-.906.543-1.884 1.166-2.962 1.794l-.171-8.063-5.414-1.425-70.343-71.008c-9.895-9.985-15.056-25.803-10.004-31.85z"/><path fill="#f06257" fill-rule="evenodd" d="M67.366 200.894c26.479.99 129.257-6.4 155.822-8.363 15.582-1.149 9.282-28.74 1.528-29.045-6.32-.249-26.35-.79-31.132 2.078-5.7 3.419-14.245 9.973-32.766 1.14-18.129-8.646-60.83 3.73-121.688-6.166-16.844-2.738-34.682 38.004 28.236 40.356z"/><circle cx="212.368" cy="177.967" r="6.946" fill="#e5e5e5"/><circle cx="37.498" cy="176.934" r="4.816" fill="#e5e5e5"/><path fill="#e5e5e5" fill-rule="evenodd" d="M42.314 176.934a4.816 4.816 0 11-4.816-4.816 4.816 4.816 0 014.816 4.816zm8.839 22.246l.021-36.932q-5.9-.717-12.044-1.709c-15.198-2.472-31.204 30.453 12.024 38.641z"/><path fill="#cac9c9" fill-rule="evenodd" d="M37.191 174.977a4.818 4.818 0 014.725 3.878 4.816 4.816 0 10-9.143-.982 4.816 4.816 0 014.418-2.896zM51.157 192.758c-18.372-3.48-26.045-11.428-27.627-19.229-1.882 9.416 4.1 21.2 27.623 25.65z"/><path fill="#ed4637" fill-rule="evenodd" d="M51.157 192.759v6.422a109.415 109.415 0 0016.213 1.714c26.479.99 129.257-6.4 155.822-8.363 8.241-.608 10.361-8.612 9.383-16.064-.76 5.047-3.526 9.21-9.379 9.642-26.565 1.96-129.344 9.353-155.822 8.363a109.4 109.4 0 01-16.217-1.714z"/><path fill="#cac9c9" fill-rule="evenodd" d="M212.368 175.8a6.949 6.949 0 016.523 4.554 6.946 6.946 0 10-13.046 0 6.948 6.948 0 016.523-4.554zM185.038 157.871l2.213-24.572c-30.656-22.281-82.561-78.284-82.561-78.284-5.052 6.047.112 21.865 10 31.849z"/></svg>

<svg id="Layer_1" data-name="Layer 1" xmlns="http://www.w3.org/2000/svg" viewBox="0 0 256 256"><title>Artboard 13</title><path d="M104.691,55.015,185.608,117.7l39.037,45.786c-6.4-.25-26.3-.777-31.06,2.081-.906.543-1.884,1.166-2.962,1.794l-.171-8.063-5.414-1.425L114.695,86.865C104.8,76.88,99.639,61.062,104.691,55.015Z" style="fill:#e5e5e5;fill-rule:evenodd"/><path d="M67.366,200.894c26.479.99,129.257-6.4,155.822-8.363,15.582-1.149,9.282-28.74,1.528-29.045-6.32-.249-26.35-.79-31.132,2.078-5.7,3.419-14.245,9.973-32.766,1.14-18.129-8.646-60.83,3.73-121.688-6.166C22.286,157.8,4.448,198.542,67.366,200.894Z" style="fill:#f06257;fill-rule:evenodd"/><circle cx="212.368" cy="177.967" r="6.946" style="fill:#e5e5e5"/><circle cx="37.498" cy="176.934" r="4.816" style="fill:#e5e5e5"/><path d="M42.314,176.934a4.816,4.816,0,1,1-4.816-4.816A4.816,4.816,0,0,1,42.314,176.934Zm8.839,22.246.021-36.932q-5.9-.717-12.044-1.709C23.932,158.067,7.926,190.992,51.154,199.18Z" style="fill:#e5e5e5;fill-rule:evenodd"/><path d="M37.191,174.977a4.818,4.818,0,0,1,4.725,3.878,4.816,4.816,0,1,0-9.143-.982A4.816,4.816,0,0,1,37.191,174.977Z" style="fill:#cac9c9;fill-rule:evenodd"/><path d="M51.157,192.758c-18.372-3.48-26.045-11.428-27.627-19.229-1.882,9.416,4.1,21.2,27.623,25.65Z" style="fill:#cac9c9;fill-rule:evenodd"/><path d="M51.157,192.759l0,6.422a109.415,109.415,0,0,0,16.213,1.714c26.479.99,129.257-6.4,155.822-8.363,8.241-.608,10.361-8.612,9.383-16.064-.76,5.047-3.526,9.21-9.379,9.642-26.565,1.96-129.344,9.353-155.822,8.363A109.4,109.4,0,0,1,51.157,192.759Z" style="fill:#ed4637;fill-rule:evenodd"/><path d="M212.368,175.8a6.949,6.949,0,0,1,6.523,4.554,6.946,6.946,0,1,0-13.046,0A6.948,6.948,0,0,1,212.368,175.8Z" style="fill:#cac9c9;fill-rule:evenodd"/><path d="M185.038,157.871l2.213-24.572c-30.656-22.281-82.561-78.284-82.561-78.284-5.052,6.047.112,21.865,10,31.849Z" style="fill:#cac9c9;fill-rule:evenodd"/></svg>
